X:1
T:Hodges, 76.76 D
T:Hodges, 76.76 D
T:John Sebastian Bach Hodges, 1869
T:Public Domain Courtesy of the Cyber Hymnal™
C:John Sebastian Bach Hodges, 1869
Z:Public Domain
Z:Courtesy of the Cyber Hymnal™
%%score ( 1 2 ) ( 3 4 )
L:1/8
Q:1/4=113
M:4/4
K:E
V:1 treble 
V:2 treble 
V:3 bass 
V:4 bass 
V:1
 E2 | [EG]3 [EA] [EB]2 [Ec]2 | [EB]4 [EG]2 [FB]2 | [EA]3 [EG] [EF]2 [DB]2 | [EG]6 [EG]2 | %5
 [EA]3 [EB] [Ec]2 [EB]2 | [FB]4 [DA]2 [EG]2 | F2 B2 [GB]2 [F^A]2 | [FB]6 [FB]2 | %9
 [Ee]3 [Ed] [Ec]2 B2 | [EB]4 [EA]2 [EG]2 | [DG]3 [DF] E2 [EG]2 | [DB]6 [DG]2 | %13
 [EG]2 [Gc]2 [Gd]2 [Fd]2 | [Ee]4 [EB]2 [EB]2 | [Ec]2 [Ee]2 [EG]2 [DF]2 | E6 |] %17
V:2
 E2 | x8 | x8 | x8 | x8 | x8 | x8 | F2 (ED) x4 | x8 | x6 (GF) | x8 | x4 E2 x2 | x8 | x8 | x8 | x8 | %16
 E6 |] %17
V:3
 [E,G,]2 | [E,B,]3 [F,B,] [G,B,]2 A,2 | [G,B,]4 [E,B,]2 [D,B,]2 | [C,C]3 [B,,G,] [A,,C]2 [B,,B,]2 | %4
 [E,B,]6 [E,B,]2 | [C,A,]3 [E,G,] A,2 [G,B,]2 | [D,B,]4 [B,,B,]2 [E,B,]2 | %7
 [D,B,]2 B,2 [E,C]2 [F,C]2 | [B,,D]6 [A,D]2 | [G,B,]3 [G,B,] [A,C]2 (ED) | C4 C2 [B,E]2 | %11
 [A,B,]3 [A,B,] [G,B,]2 [E,G,]2 | [B,,F,]6 [^B,,G,]2 | [C,C]2 [E,C]2 [G,C]2 [G,^B,]2 | %14
 C4 [G,E]2 [E,G,]2 | A,2 (G,A,) [B,,B,]2 [B,,A,]2 | [E,G,]6 |] %17
V:4
 x2 | x6 A,2 | x8 | x8 | x8 | x4 A,2 x2 | x8 | x2 (G,F,) x4 | x8 | x6 B,2 | C4 C2 x2 | x8 | x8 | %13
 x8 | C4 x4 | A,2 C,2 x4 | x6 |] %17

